X:118
T: IHREN SCHAEFER ZU ERWARTEN
N: B0149
O: Europa, Mitteleuropa, Deutschland
R: Ballade, Romanze
M: 6/8
L: 1/16
K: E
 | E4E2G4G2 | B4B2G4E2 |
F3FF2A4D2 | F3EE2E4z2 |
E4E2G4G2 | B4B2G4E2 |
F3FF2A4D2 | F3EE2E4z2 |
c4c2e2d2c2 | c2B2B2B6 |
A4A2c2B2A2 | A2G2G2G4z2 |
F3FF2A4F2 | E3EG2B4
G2 | F3FF2A4D2 | E3EE2E4z2

@@@ Tune index: 1921
